X:955
T:The Merry Bachelor
T:Tommy Peoples'
S:CD, Raise the Rafters
Z:Nigel Gatherer
M:4/4
L:1/8
K:Bm
B3 c dBAF | B3 c dfed | B3 c d3 B| ABde fded |
B3 c dBAF | BABc dfed | BA A/A/A d2 Bd | ABde fded ||
dfaf bfaf | dfaf (3ggg fg | afef d2 Bd | ABde fdec |
dfaf bfaf | dfaf (3ggg fg | afef dFBF | ABde fded ||
<end>
<start>
